polaris-icons/icons/new-icons/SmileySadMajor.svg

<svg width="20" height="20" viewBox="0 0 20 20" fill="none" xmlns="http://www.w3.org/2000/svg">
<path fill-rule="evenodd" clip-rule="evenodd" d="M15.5 10C15.5 13.0376 13.0376 15.5 10 15.5C6.96243 15.5 4.5 13.0376 4.5 10C4.5 6.96243 6.96243 4.5 10 4.5C13.0376 4.5 15.5 6.96243 15.5 10ZM17 10C17 13.866 13.866 17 10 17C6.13401 17 3 13.866 3 10C3 6.13401 6.13401 3 10 3C13.866 3 17 6.13401 17 10ZM9.04329 12.6903C9.34661 12.5647 9.67169 12.5 10 12.5C10.3283 12.5 10.6534 12.5647 10.9567 12.6903C11.26 12.8159 11.5356 13.0001 11.7678 13.2322C12.0607 13.5251 12.5355 13.5251 12.8284 13.2322C13.1213 12.9393 13.1213 12.4645 12.8284 12.1716C12.457 11.8001 12.016 11.5055 11.5307 11.3045C11.0454 11.1035 10.5253 11 10 11C9.47471 11 8.95457 11.1035 8.46927 11.3045C7.98396 11.5055 7.54301 11.8001 7.17157 12.1716C6.87868 12.4645 6.87868 12.9393 7.17157 13.2322C7.46447 13.5251 7.93934 13.5251 8.23223 13.2322C8.46438 13.0001 8.73998 12.8159 9.04329 12.6903ZM10.75 7.75C10.75 7.33579 11.0858 7 11.5 7C11.9142 7 12.25 7.33579 12.25 7.75V9.25C12.25 9.66421 11.9142 10 11.5 10C11.0858 10 10.75 9.66421 10.75 9.25V7.75ZM8.5 7C8.08579 7 7.75 7.33579 7.75 7.75V9.25C7.75 9.66421 8.08579 10 8.5 10C8.91421 10 9.25 9.66421 9.25 9.25V7.75C9.25 7.33579 8.91421 7 8.5 7Z" fill="#4A4A4A"/>
</svg>

<svg viewBox="0 0 20 20" xmlns="http://www.w3.org/2000/svg"><path fill-rule="evenodd" d="M15.5 10a5.5 5.5 0 1 1-11 0 5.5 5.5 0 0 1 11 0Zm1.5 0a7 7 0 1 1-14 0 7 7 0 0 1 14 0Zm-7.957 2.69a2.5 2.5 0 0 1 2.725.542.75.75 0 1 0 1.06-1.06 3.998 3.998 0 0 0-5.656 0 .75.75 0 1 0 1.06 1.06 2.5 2.5 0 0 1 .811-.542Zm1.707-4.94a.75.75 0 0 1 1.5 0v1.5a.75.75 0 0 1-1.5 0v-1.5Zm-2.25-.75a.75.75 0 0 0-.75.75v1.5a.75.75 0 0 0 1.5 0v-1.5a.75.75 0 0 0-.75-.75Z" fill="#5C5F62"/></svg>
